X: 20
T: Tom Billy's Reel
R: reel
M: C|
L: 1/8
K: D
|: "D"d2dA "A7"BAFB |  "D"AFF2 "A7"EFDE | "D"F2AF "G"G2BG | "A7"ABde    fgfe  |
|  "D"d2dA "A7"BAFB |  "D"AFF2 "A7"EFDE | "D"F2AF "G"G2BG | "A7"ABde "D"fdd2 :|
|: "D"faab     afdf | "Em"gefd "A7"edBg | "D"faab    afdB |  "A7"ABde "D"fddg  |
|  "D"faab     afdf | "Em"gefd "A7"edBA | "D"F2AF "G"G2BG |1 "A7"ABde "D"fdd2 :|2 "A7"ABde fgfe |]
%%sep 1 1 500
